symbols/web/network_ping/materialsymbolsrounded/network_ping_gradN25_20px.svg

<svg xmlns="http://www.w3.org/2000/svg" height="20" width="20"><path d="M4.167 14.812q-.313 0-.563-.25-.25-.25-.25-.583 0-.312.25-.562.25-.25.563-.25h4.604L2.5 6.875q-.229-.25-.229-.573 0-.323.25-.552.25-.25.562-.25.313 0 .563.25l6.333 6.312 4.146-4.166q-.083-.188-.104-.375Q14 7.333 14 7.125q0-.854.615-1.469.614-.614 1.468-.614.834 0 1.448.614.615.615.615 1.469 0 .833-.615 1.448-.614.615-1.448.615-.187 0-.395-.032-.209-.031-.376-.094l-4.104 4.105h4.625q.334 0 .584.25.25.25.25.562 0 .333-.25.583-.25.25-.584.25Z"/></svg>

<svg xmlns="http://www.w3.org/2000/svg" height="20" width="20"><path d="M4.167 14.812Q3.854 14.812 3.604 14.562Q3.354 14.312 3.354 13.979Q3.354 13.667 3.604 13.417Q3.854 13.167 4.167 13.167H8.771L2.5 6.875Q2.271 6.625 2.271 6.302Q2.271 5.979 2.521 5.75Q2.771 5.5 3.083 5.5Q3.396 5.5 3.646 5.75L9.979 12.062L14.125 7.896Q14.042 7.708 14.021 7.521Q14 7.333 14 7.125Q14 6.271 14.615 5.656Q15.229 5.042 16.083 5.042Q16.917 5.042 17.531 5.656Q18.146 6.271 18.146 7.125Q18.146 7.958 17.531 8.573Q16.917 9.188 16.083 9.188Q15.896 9.188 15.688 9.156Q15.479 9.125 15.312 9.062L11.208 13.167H15.833Q16.167 13.167 16.417 13.417Q16.667 13.667 16.667 13.979Q16.667 14.312 16.417 14.562Q16.167 14.812 15.833 14.812Z"/></svg>
